X: 12
T: Dunmore Lasses, The
Z: Tania Sycheva
S: https://thesession.org/tunes/462#setting50446
R: reel
M: 4/4
L: 1/8
K: Emin
|:E2 EF G2 GA|Beed Beed|~EDEF GABG|AcBA GEFD|
EDEF GFGA|Beed e2 ef|ge fd eBdB|AcBA GE E2:|
|:gfeg fedc|Beed Beef|g2eg fedB|AcBA GE E2|
gfeg fedc|Beed e2 ef|ge fd eBdB|A2 BA GEE2:|

